report_00007_2020-12-11T15:55:29.892Z/speed-index/comparison/line/8_vs_9.svg

<svg width="640" height="500" xmlns="http://www.w3.org/2000/svg" xmlns:xlink="http://www.w3.org/1999/xlink"><path fill="#fff" d="M0 0h640v500H0z"/><defs><path id="d" stroke-width=".222" stroke="currentColor" d="M-1-1h2v2h-2z"/><path id="b" stroke-width=".222" stroke="currentColor" d="M0-1.33l-1.33 2h2.66z"/><path id="f" stroke-width=".222" stroke="currentColor" d="M0 1.33L1.265.411.782-1.067l-1.564-.009-.483 1.487z"/><use xlink:href="#b" id="c" stroke="currentColor" transform="rotate(180)"/><use xlink:href="#d" id="e" stroke="currentColor" transform="rotate(45)"/><circle id="a" stroke-width=".222" stroke="currentColor" cx="0" cy="0" r="1"/></defs><g fill="none" color="#000" stroke="currentColor"><path stroke="#000" d="M62.2 367.9h9m543.8 0h-9"/><text transform="translate(53.9 371.8)" stroke="none" fill="#000" font-family="Arial" font-size="12" text-anchor="end"><tspan>1800</tspan></text></g><g fill="none" color="#000" stroke="currentColor"><path stroke="#000" d="M62.2 291h9m543.8 0h-9"/><text transform="translate(53.9 294.9)" stroke="none" fill="#000" font-family="Arial" font-size="12" text-anchor="end"><tspan>2000</tspan></text></g><g fill="none" color="#000" stroke="currentColor"><path stroke="#000" d="M62.2 214h9m543.8 0h-9"/><text transform="translate(53.9 217.9)" stroke="none" fill="#000" font-family="Arial" font-size="12" text-anchor="end"><tspan>2200</tspan></text></g><g fill="none" color="#000" stroke="currentColor"><path stroke="#000" d="M62.2 137.1h9m543.8 0h-9"/><text transform="translate(53.9 141)" stroke="none" fill="#000" font-family="Arial" font-size="12" text-anchor="end"><tspan>2400</tspan></text></g><g fill="none" color="#000" stroke="currentColor"><path stroke="#000" d="M62.2 60.2h9m543.8 0h-9"/><text transform="translate(53.9 64.1)" stroke="none" fill="#000" font-family="Arial" font-size="12" text-anchor="end"><tspan>2600</tspan></text></g><g fill="none" color="#000" stroke="currentColor"><path stroke="#000" d="M62.2 428v-9m0-400.9v9"/><text transform="translate(62.2 449.9)" stroke="none" fill="#000" font-family="Arial" font-size="12" text-anchor="middle"><tspan>0</tspan></text></g><g fill="none" color="#000" stroke="currentColor"><path stroke="#000" d="M118 428v-9m0-400.9v9"/><text transform="translate(118 449.9)" stroke="none" fill="#000" font-family="Arial" font-size="12" text-anchor="middle"><tspan>10</tspan></text></g><g fill="none" color="#000" stroke="currentColor"><path stroke="#000" d="M173.9 428v-9m0-400.9v9"/><text transform="translate(173.9 449.9)" stroke="none" fill="#000" font-family="Arial" font-size="12" text-anchor="middle"><tspan>20</tspan></text></g><g fill="none" color="#000" stroke="currentColor"><path stroke="#000" d="M229.7 428v-9m0-400.9v9"/><text transform="translate(229.7 449.9)" stroke="none" fill="#000" font-family="Arial" font-size="12" text-anchor="middle"><tspan>30</tspan></text></g><g fill="none" color="#000" stroke="currentColor"><path stroke="#000" d="M285.6 428v-9m0-400.9v9"/><text transform="translate(285.6 449.9)" stroke="none" fill="#000" font-family="Arial" font-size="12" text-anchor="middle"><tspan>40</tspan></text></g><g fill="none" color="#000" stroke="currentColor"><path stroke="#000" d="M341.4 428v-9m0-400.9v9"/><text transform="translate(341.4 449.9)" stroke="none" fill="#000" font-family="Arial" font-size="12" text-anchor="middle"><tspan>50</tspan></text></g><g fill="none" color="#000" stroke="currentColor"><path stroke="#000" d="M397.2 428v-9m0-400.9v9"/><text transform="translate(397.2 449.9)" stroke="none" fill="#000" font-family="Arial" font-size="12" text-anchor="middle"><tspan>60</tspan></text></g><g fill="none" color="#000" stroke="currentColor"><path stroke="#000" d="M453.1 428v-9m0-400.9v9"/><text transform="translate(453.1 449.9)" stroke="none" fill="#000" font-family="Arial" font-size="12" text-anchor="middle"><tspan>70</tspan></text></g><g fill="none" color="#000" stroke="currentColor"><path stroke="#000" d="M508.9 428v-9m0-400.9v9"/><text transform="translate(508.9 449.9)" stroke="none" fill="#000" font-family="Arial" font-size="12" text-anchor="middle"><tspan>80</tspan></text></g><g fill="none" color="#000" stroke="currentColor"><path stroke="#000" d="M564.7 428v-9m0-400.9v9"/><text transform="translate(564.7 449.9)" stroke="none" fill="#000" font-family="Arial" font-size="12" text-anchor="middle"><tspan>90</tspan></text></g><path stroke="#000" d="M62.2 18.1V428H615V18.1H62.2z" fill="none" color="#000"/><text transform="translate(279.8 467.9)" stroke="none" fill="#000" font-family="Arial" font-size="12" text-anchor="end" color="#000"><tspan>pages+cached+noexternal+noimg</tspan></text><path stroke="#9400D3" d="M288.1 464h42.2M62.2 76.6l5.6 2.6 5.6 9.1L79 74.1l5.5-35.9 5.6 7.8 5.6-4 5.6 36 5.6-27.8 5.6-9.2 5.5 3.7 5.6 28.5 5.6-29.9 5.6-9 5.6 37.2 5.6-33.8 5.5 3.5 5.6 3.6 5.6-5.1 5.6-6.3 5.6 59.1 5.6-47.7 5.5 46.7 5.6-52.7 5.6 38.8 5.6-34.2 5.6-.9 5.6 3.4 5.5-6.2 5.6 5.4 5.6-5.2 5.6-4.7 5.6 36 5.6-27.7 5.6 8.6 5.5 20.3 5.6-36.1 5.6.2 5.6 5.7 5.6 6.7 5.6 37.3 5.5-7 5.6 16.3 5.6-54.5 5.6-4.7 5.6 44.3 5.6-31 5.5-9.8 5.6 11 5.6 34.1 5.6-38.4L347 67l5.6-30 5.5 2.1 5.6 45.3 5.6 59.1 5.6-100.4 5.6 3.4 5.6 27.1 5.5-27.9 5.6-5.3 5.6-4.2 5.6 47.8 5.6.1 5.6-37.5 5.5 43.8 5.6-49.1 5.6-8.5 5.6 50.4 5.6-49 5.6 6.9 5.6 3.9 5.5 42.2 5.6-8.6 5.6-32.7 5.6 30.7 5.6-50.6 5.6 21.9 5.5-8.6 5.6 35.7 5.6-34.6 5.6 6.1 5.6 41.6 5.6-61.7 5.5 61.7 5.6.6 5.6-53.7 5.6 5.6 5.6 45.9 5.6-14.7 5.5-33.3 5.6 2.3 5.6 42 5.6-45.9 5.6 7.3 5.6-4.3 5.5 33.8 5.6-31.2 5.6 1.6 5.6-1.3" fill="none" color="#000"/><text transform="translate(279.8 485.9)" stroke="none" fill="#000" font-family="Arial" font-size="12" text-anchor="end" color="#000"><tspan>pages+cached+noexternal+nocss</tspan></text><path stroke="#009E73" d="M288.1 482h42.2M62.2 418.6l5.6.3 5.6-.4 5.6.9 5.5-1.6 5.6.3 5.6.9 5.6.8 5.6-1.2 5.6.1 5.5-.5 5.6.3 5.6-.4 5.6.5 5.6-.2 5.6.1 5.5.1 5.6.4 5.6-.5 5.6-1.4 5.6.8 5.6 1.2 5.5-1.2 5.6.2 5.6 1.2 5.6.2 5.6-1.4 5.6-1.4 5.5 2.1 5.6-.7 5.6-.4 5.6.6 5.6.4 5.6-.2 5.6-.3 5.5-1.4 5.6 1.7 5.6.1 5.6-.3 5.6 1.5 5.6-.2 5.5-.9 5.6 1.4 5.6-1.5 5.6.2 5.6.7 5.6-.2 5.5-.1 5.6-2.2 5.6 2.2 5.6-.1 5.6-.4 5.6-.1 5.5-.2 5.6-.6 5.6.2 5.6 1.9 5.6-1.4 5.6.6h5.5l5.6.4 5.6-.5 5.6.3 5.6-1 5.6.1 5.5.3 5.6-1.1 5.6.8 5.6-.3 5.6.1 5.6 1.8 5.6-1.9 5.5.4 5.6-.2 5.6-.2 5.6.5 5.6-.8h5.6l5.5.6 5.6-.1 5.6 1 5.6-1.3 5.6.5 5.6-.1 5.5.2 5.6 1.1 5.6-1.3 5.6.4 5.6-1 5.6 1.7 5.5-.6 5.6-.4h5.6l5.6.9 5.6-.6h5.6l5.5-.4h11.2l5.6-.3" fill="none" color="#000"/><text transform="translate(579.3 467.9)" stroke="none" fill="#000" font-family="Arial" font-size="12" text-anchor="end" color="#000"><tspan>score p10=3387</tspan></text><path stroke="#56B4E9" d="M587.6 464h42.2" fill="none" color="#000"/><g><text transform="translate(579.3 485.9)" stroke="none" fill="#000" font-family="Arial" font-size="12" text-anchor="end" color="#000"><tspan>score median=5800</tspan></text><path stroke="#E69F00" d="M587.6 482h42.2" fill="none" color="#000"/></g><g fill="none" color="#000" stroke="currentColor"><path stroke="#000" d="M62.2 18.1V428H615V18.1H62.2z"/></g></svg>

<?xml version="1.0" encoding="utf-8"  standalone="no"?>
<svg 
 width="640" height="500"
 viewBox="0 0 640 500"
 xmlns="http://www.w3.org/2000/svg"
 xmlns:xlink="http://www.w3.org/1999/xlink"
>

<title>Gnuplot</title>
<desc>Produced by GNUPLOT 5.4 patchlevel 0 </desc>

<g id="gnuplot_canvas">

<rect x="0" y="0" width="640" height="500" fill="#ffffff"/>
<defs>

	<circle id='gpDot' r='0.5' stroke-width='0.5' stroke='currentColor'/>
	<path id='gpPt0' stroke-width='0.222' stroke='currentColor' d='M-1,0 h2 M0,-1 v2'/>
	<path id='gpPt1' stroke-width='0.222' stroke='currentColor' d='M-1,-1 L1,1 M1,-1 L-1,1'/>
	<path id='gpPt2' stroke-width='0.222' stroke='currentColor' d='M-1,0 L1,0 M0,-1 L0,1 M-1,-1 L1,1 M-1,1 L1,-1'/>
	<rect id='gpPt3' stroke-width='0.222' stroke='currentColor' x='-1' y='-1' width='2' height='2'/>
	<rect id='gpPt4' stroke-width='0.222' stroke='currentColor' fill='currentColor' x='-1' y='-1' width='2' height='2'/>
	<circle id='gpPt5' stroke-width='0.222' stroke='currentColor' cx='0' cy='0' r='1'/>
	<use xlink:href='#gpPt5' id='gpPt6' fill='currentColor' stroke='none'/>
	<path id='gpPt7' stroke-width='0.222' stroke='currentColor' d='M0,-1.33 L-1.33,0.67 L1.33,0.67 z'/>
	<use xlink:href='#gpPt7' id='gpPt8' fill='currentColor' stroke='none'/>
	<use xlink:href='#gpPt7' id='gpPt9' stroke='currentColor' transform='rotate(180)'/>
	<use xlink:href='#gpPt9' id='gpPt10' fill='currentColor' stroke='none'/>
	<use xlink:href='#gpPt3' id='gpPt11' stroke='currentColor' transform='rotate(45)'/>
	<use xlink:href='#gpPt11' id='gpPt12' fill='currentColor' stroke='none'/>
	<path id='gpPt13' stroke-width='0.222' stroke='currentColor' d='M0,1.330 L1.265,0.411 L0.782,-1.067 L-0.782,-1.076 L-1.265,0.411 z'/>
	<use xlink:href='#gpPt13' id='gpPt14' fill='currentColor' stroke='none'/>
	<filter id='textbox' filterUnits='objectBoundingBox' x='0' y='0' height='1' width='1'>
	  <feFlood flood-color='#FFFFFF' flood-opacity='1' result='bgnd'/>
	  <feComposite in='SourceGraphic' in2='bgnd' operator='atop'/>
	</filter>
	<filter id='greybox' filterUnits='objectBoundingBox' x='0' y='0' height='1' width='1'>
	  <feFlood flood-color='lightgrey' flood-opacity='1' result='grey'/>
	  <feComposite in='SourceGraphic' in2='grey' operator='atop'/>
	</filter>
</defs>
<g fill="none" color="#FFFFFF" stroke="currentColor" stroke-width="1.00" stroke-linecap="butt" stroke-linejoin="miter">
</g>
<g fill="none" color="black" stroke="currentColor" stroke-width="1.00" stroke-linecap="butt" stroke-linejoin="miter">
	<path stroke='black'  d='M62.2,367.9 L71.2,367.9 M615.0,367.9 L606.0,367.9  '/>	<g transform="translate(53.9,371.8)" stroke="none" fill="black" font-family="Arial" font-size="12.00"  text-anchor="end">
		<text><tspan font-family="Arial" > 1800</tspan></text>
	</g>
</g>
<g fill="none" color="black" stroke="currentColor" stroke-width="1.00" stroke-linecap="butt" stroke-linejoin="miter">
	<path stroke='black'  d='M62.2,291.0 L71.2,291.0 M615.0,291.0 L606.0,291.0  '/>	<g transform="translate(53.9,294.9)" stroke="none" fill="black" font-family="Arial" font-size="12.00"  text-anchor="end">
		<text><tspan font-family="Arial" > 2000</tspan></text>
	</g>
</g>
<g fill="none" color="black" stroke="currentColor" stroke-width="1.00" stroke-linecap="butt" stroke-linejoin="miter">
	<path stroke='black'  d='M62.2,214.0 L71.2,214.0 M615.0,214.0 L606.0,214.0  '/>	<g transform="translate(53.9,217.9)" stroke="none" fill="black" font-family="Arial" font-size="12.00"  text-anchor="end">
		<text><tspan font-family="Arial" > 2200</tspan></text>
	</g>
</g>
<g fill="none" color="black" stroke="currentColor" stroke-width="1.00" stroke-linecap="butt" stroke-linejoin="miter">
	<path stroke='black'  d='M62.2,137.1 L71.2,137.1 M615.0,137.1 L606.0,137.1  '/>	<g transform="translate(53.9,141.0)" stroke="none" fill="black" font-family="Arial" font-size="12.00"  text-anchor="end">
		<text><tspan font-family="Arial" > 2400</tspan></text>
	</g>
</g>
<g fill="none" color="black" stroke="currentColor" stroke-width="1.00" stroke-linecap="butt" stroke-linejoin="miter">
	<path stroke='black'  d='M62.2,60.2 L71.2,60.2 M615.0,60.2 L606.0,60.2  '/>	<g transform="translate(53.9,64.1)" stroke="none" fill="black" font-family="Arial" font-size="12.00"  text-anchor="end">
		<text><tspan font-family="Arial" > 2600</tspan></text>
	</g>
</g>
<g fill="none" color="black" stroke="currentColor" stroke-width="1.00" stroke-linecap="butt" stroke-linejoin="miter">
	<path stroke='black'  d='M62.2,428.0 L62.2,419.0 M62.2,18.1 L62.2,27.1  '/>	<g transform="translate(62.2,449.9)" stroke="none" fill="black" font-family="Arial" font-size="12.00"  text-anchor="middle">
		<text><tspan font-family="Arial" > 0</tspan></text>
	</g>
</g>
<g fill="none" color="black" stroke="currentColor" stroke-width="1.00" stroke-linecap="butt" stroke-linejoin="miter">
	<path stroke='black'  d='M118.0,428.0 L118.0,419.0 M118.0,18.1 L118.0,27.1  '/>	<g transform="translate(118.0,449.9)" stroke="none" fill="black" font-family="Arial" font-size="12.00"  text-anchor="middle">
		<text><tspan font-family="Arial" > 10</tspan></text>
	</g>
</g>
<g fill="none" color="black" stroke="currentColor" stroke-width="1.00" stroke-linecap="butt" stroke-linejoin="miter">
	<path stroke='black'  d='M173.9,428.0 L173.9,419.0 M173.9,18.1 L173.9,27.1  '/>	<g transform="translate(173.9,449.9)" stroke="none" fill="black" font-family="Arial" font-size="12.00"  text-anchor="middle">
		<text><tspan font-family="Arial" > 20</tspan></text>
	</g>
</g>
<g fill="none" color="black" stroke="currentColor" stroke-width="1.00" stroke-linecap="butt" stroke-linejoin="miter">
	<path stroke='black'  d='M229.7,428.0 L229.7,419.0 M229.7,18.1 L229.7,27.1  '/>	<g transform="translate(229.7,449.9)" stroke="none" fill="black" font-family="Arial" font-size="12.00"  text-anchor="middle">
		<text><tspan font-family="Arial" > 30</tspan></text>
	</g>
</g>
<g fill="none" color="black" stroke="currentColor" stroke-width="1.00" stroke-linecap="butt" stroke-linejoin="miter">
	<path stroke='black'  d='M285.6,428.0 L285.6,419.0 M285.6,18.1 L285.6,27.1  '/>	<g transform="translate(285.6,449.9)" stroke="none" fill="black" font-family="Arial" font-size="12.00"  text-anchor="middle">
		<text><tspan font-family="Arial" > 40</tspan></text>
	</g>
</g>
<g fill="none" color="black" stroke="currentColor" stroke-width="1.00" stroke-linecap="butt" stroke-linejoin="miter">
	<path stroke='black'  d='M341.4,428.0 L341.4,419.0 M341.4,18.1 L341.4,27.1  '/>	<g transform="translate(341.4,449.9)" stroke="none" fill="black" font-family="Arial" font-size="12.00"  text-anchor="middle">
		<text><tspan font-family="Arial" > 50</tspan></text>
	</g>
</g>
<g fill="none" color="black" stroke="currentColor" stroke-width="1.00" stroke-linecap="butt" stroke-linejoin="miter">
	<path stroke='black'  d='M397.2,428.0 L397.2,419.0 M397.2,18.1 L397.2,27.1  '/>	<g transform="translate(397.2,449.9)" stroke="none" fill="black" font-family="Arial" font-size="12.00"  text-anchor="middle">
		<text><tspan font-family="Arial" > 60</tspan></text>
	</g>
</g>
<g fill="none" color="black" stroke="currentColor" stroke-width="1.00" stroke-linecap="butt" stroke-linejoin="miter">
	<path stroke='black'  d='M453.1,428.0 L453.1,419.0 M453.1,18.1 L453.1,27.1  '/>	<g transform="translate(453.1,449.9)" stroke="none" fill="black" font-family="Arial" font-size="12.00"  text-anchor="middle">
		<text><tspan font-family="Arial" > 70</tspan></text>
	</g>
</g>
<g fill="none" color="black" stroke="currentColor" stroke-width="1.00" stroke-linecap="butt" stroke-linejoin="miter">
	<path stroke='black'  d='M508.9,428.0 L508.9,419.0 M508.9,18.1 L508.9,27.1  '/>	<g transform="translate(508.9,449.9)" stroke="none" fill="black" font-family="Arial" font-size="12.00"  text-anchor="middle">
		<text><tspan font-family="Arial" > 80</tspan></text>
	</g>
</g>
<g fill="none" color="black" stroke="currentColor" stroke-width="1.00" stroke-linecap="butt" stroke-linejoin="miter">
	<path stroke='black'  d='M564.7,428.0 L564.7,419.0 M564.7,18.1 L564.7,27.1  '/>	<g transform="translate(564.7,449.9)" stroke="none" fill="black" font-family="Arial" font-size="12.00"  text-anchor="middle">
		<text><tspan font-family="Arial" > 90</tspan></text>
	</g>
</g>
<g fill="none" color="black" stroke="currentColor" stroke-width="1.00" stroke-linecap="butt" stroke-linejoin="miter">
</g>
<g fill="none" color="black" stroke="currentColor" stroke-width="1.00" stroke-linecap="butt" stroke-linejoin="miter">
	<path stroke='black'  d='M62.2,18.1 L62.2,428.0 L615.0,428.0 L615.0,18.1 L62.2,18.1 Z  '/></g>
<g fill="none" color="black" stroke="currentColor" stroke-width="1.00" stroke-linecap="butt" stroke-linejoin="miter">
</g>
	<g id="gnuplot_plot_1" ><title>pages+cached+noexternal+noimg</title>
<g fill="none" color="black" stroke="currentColor" stroke-width="1.00" stroke-linecap="butt" stroke-linejoin="miter">
	<g transform="translate(279.8,467.9)" stroke="none" fill="black" font-family="Arial" font-size="12.00"  text-anchor="end">
		<text><tspan font-family="Arial" >pages+cached+noexternal+noimg</tspan></text>
	</g>
</g>
<g fill="none" color="black" stroke="currentColor" stroke-width="1.00" stroke-linecap="butt" stroke-linejoin="miter">
	<path stroke='rgb(148,   0, 211)'  d='M288.1,464.0 L330.3,464.0 M62.2,76.6 L67.8,79.2 L73.4,88.3 L79.0,74.1 L84.5,38.2 L90.1,46.0
		L95.7,42.0 L101.3,78.0 L106.9,50.2 L112.5,41.0 L118.0,44.7 L123.6,73.2 L129.2,43.3 L134.8,34.3
		L140.4,71.5 L146.0,37.7 L151.5,41.2 L157.1,44.8 L162.7,39.7 L168.3,33.4 L173.9,92.5 L179.5,44.8
		L185.0,91.5 L190.6,38.8 L196.2,77.6 L201.8,43.4 L207.4,42.5 L213.0,45.9 L218.5,39.7 L224.1,45.1
		L229.7,39.9 L235.3,35.2 L240.9,71.2 L246.5,43.5 L252.1,52.1 L257.6,72.4 L263.2,36.3 L268.8,36.5
		L274.4,42.2 L280.0,48.9 L285.6,86.2 L291.1,79.2 L296.7,95.5 L302.3,41.0 L307.9,36.3 L313.5,80.6
		L319.1,49.6 L324.6,39.8 L330.2,50.8 L335.8,84.9 L341.4,46.5 L347.0,67.0 L352.6,37.0 L358.1,39.1
		L363.7,84.4 L369.3,143.5 L374.9,43.1 L380.5,46.5 L386.1,73.6 L391.6,45.7 L397.2,40.4 L402.8,36.2
		L408.4,84.0 L414.0,84.1 L419.6,46.6 L425.1,90.4 L430.7,41.3 L436.3,32.8 L441.9,83.2 L447.5,34.2
		L453.1,41.1 L458.7,45.0 L464.2,87.2 L469.8,78.6 L475.4,45.9 L481.0,76.6 L486.6,26.0 L492.2,47.9
		L497.7,39.3 L503.3,75.0 L508.9,40.4 L514.5,46.5 L520.1,88.1 L525.7,26.4 L531.2,88.1 L536.8,88.7
		L542.4,35.0 L548.0,40.6 L553.6,86.5 L559.2,71.8 L564.7,38.5 L570.3,40.8 L575.9,82.8 L581.5,36.9
		L587.1,44.2 L592.7,39.9 L598.2,73.7 L603.8,42.5 L609.4,44.1 L615.0,42.8  '/></g>
	</g>
	<g id="gnuplot_plot_2" ><title>pages+cached+noexternal+nocss</title>
<g fill="none" color="black" stroke="currentColor" stroke-width="1.00" stroke-linecap="butt" stroke-linejoin="miter">
	<g transform="translate(279.8,485.9)" stroke="none" fill="black" font-family="Arial" font-size="12.00"  text-anchor="end">
		<text><tspan font-family="Arial" >pages+cached+noexternal+nocss</tspan></text>
	</g>
</g>
<g fill="none" color="black" stroke="currentColor" stroke-width="1.00" stroke-linecap="butt" stroke-linejoin="miter">
	<path stroke='rgb(  0, 158, 115)'  d='M288.1,482.0 L330.3,482.0 M62.2,418.6 L67.8,418.9 L73.4,418.5 L79.0,419.4 L84.5,417.8 L90.1,418.1
		L95.7,419.0 L101.3,419.8 L106.9,418.6 L112.5,418.7 L118.0,418.2 L123.6,418.5 L129.2,418.1 L134.8,418.6
		L140.4,418.4 L146.0,418.5 L151.5,418.6 L157.1,419.0 L162.7,418.5 L168.3,417.1 L173.9,417.9 L179.5,419.1
		L185.0,417.9 L190.6,418.1 L196.2,419.3 L201.8,419.5 L207.4,418.1 L213.0,416.7 L218.5,418.8 L224.1,418.1
		L229.7,417.7 L235.3,418.3 L240.9,418.7 L246.5,418.5 L252.1,418.2 L257.6,416.8 L263.2,418.5 L268.8,418.6
		L274.4,418.3 L280.0,419.8 L285.6,419.6 L291.1,418.7 L296.7,420.1 L302.3,418.6 L307.9,418.8 L313.5,419.5
		L319.1,419.3 L324.6,419.2 L330.2,417.0 L335.8,419.2 L341.4,419.1 L347.0,418.7 L352.6,418.6 L358.1,418.4
		L363.7,417.8 L369.3,418.0 L374.9,419.9 L380.5,418.5 L386.1,419.1 L391.6,419.1 L397.2,419.5 L402.8,419.0
		L408.4,419.3 L414.0,418.3 L419.6,418.4 L425.1,418.7 L430.7,417.6 L436.3,418.4 L441.9,418.1 L447.5,418.2
		L453.1,420.0 L458.7,418.1 L464.2,418.5 L469.8,418.3 L475.4,418.1 L481.0,418.6 L486.6,417.8 L492.2,417.8
		L497.7,418.4 L503.3,418.3 L508.9,419.3 L514.5,418.0 L520.1,418.5 L525.7,418.4 L531.2,418.6 L536.8,419.7
		L542.4,418.4 L548.0,418.8 L553.6,417.8 L559.2,419.5 L564.7,418.9 L570.3,418.5 L575.9,418.5 L581.5,419.4
		L587.1,418.8 L592.7,418.8 L598.2,418.4 L603.8,418.4 L609.4,418.4 L615.0,418.1  '/></g>
	</g>
	<g id="gnuplot_plot_3" ><title>score p10=3387</title>
<g fill="none" color="black" stroke="currentColor" stroke-width="1.00" stroke-linecap="butt" stroke-linejoin="miter">
	<g transform="translate(579.3,467.9)" stroke="none" fill="black" font-family="Arial" font-size="12.00"  text-anchor="end">
		<text><tspan font-family="Arial" >score p10=3387</tspan></text>
	</g>
</g>
<g fill="none" color="black" stroke="currentColor" stroke-width="1.00" stroke-linecap="butt" stroke-linejoin="miter">
	<path stroke='rgb( 86, 180, 233)'  d='M587.6,464.0 L629.8,464.0  '/></g>
	</g>
	<g id="gnuplot_plot_4" ><title>score median=5800</title>
<g fill="none" color="black" stroke="currentColor" stroke-width="1.00" stroke-linecap="butt" stroke-linejoin="miter">
	<g transform="translate(579.3,485.9)" stroke="none" fill="black" font-family="Arial" font-size="12.00"  text-anchor="end">
		<text><tspan font-family="Arial" >score median=5800</tspan></text>
	</g>
</g>
<g fill="none" color="black" stroke="currentColor" stroke-width="1.00" stroke-linecap="butt" stroke-linejoin="miter">
	<path stroke='rgb(230, 159,   0)'  d='M587.6,482.0 L629.8,482.0  '/></g>
	</g>
<g fill="none" color="#FFFFFF" stroke="rgb(230, 159,   0)" stroke-width="2.00" stroke-linecap="butt" stroke-linejoin="miter">
</g>
<g fill="none" color="black" stroke="currentColor" stroke-width="2.00" stroke-linecap="butt" stroke-linejoin="miter">
</g>
<g fill="none" color="black" stroke="black" stroke-width="1.00" stroke-linecap="butt" stroke-linejoin="miter">
</g>
<g fill="none" color="black" stroke="currentColor" stroke-width="1.00" stroke-linecap="butt" stroke-linejoin="miter">
	<path stroke='black'  d='M62.2,18.1 L62.2,428.0 L615.0,428.0 L615.0,18.1 L62.2,18.1 Z  '/></g>
<g fill="none" color="black" stroke="currentColor" stroke-width="1.00" stroke-linecap="butt" stroke-linejoin="miter">
</g>
</g>
</svg>
